static/cards/FrenchDeck/cyberwave/card_spades_10.svg

<svg xmlns="http://www.w3.org/2000/svg" width="822" height="1122" fill="none" viewBox="0 0 822 1122"><rect width="822" height="1122" fill="#1a0033" rx="20"/><g fill="#fff066" clip-path="url(#a)"><path d="M56.577 159q-1.536 0-2.304-.512-.64-.64-.64-2.048v-.896q-.001-2.816 2.944-2.816h15.615v-72.32l-14.847 8.96q-1.152.768-2.048.768-1.024 0-1.792-1.408l-.513-.768q-.51-.896-.511-1.664 0-1.408 1.535-2.304L72.96 72.6q1.025-.64 2.433-.64h.767q2.945 0 2.945 2.944v77.824H94.72q2.945 0 2.945 2.816v.896q0 1.408-.769 2.048-.639.512-2.175.512zm92.843 1.92q-19.713 0-29.952-11.776-10.24-11.904-10.24-33.664t10.24-33.536Q129.707 70.04 149.42 70.04q19.712 0 29.952 11.904 10.24 11.775 10.24 33.536 0 21.76-10.24 33.664-10.24 11.776-29.952 11.776m20.48-79.232q-7.937-5.76-20.48-5.76-16.512 0-25.088 10.112-8.448 9.984-8.448 29.44 0 19.968 8.832 29.952zm-20.48 73.344q16.512 0 24.96-9.984 8.576-10.112 8.576-29.568 0-19.2-8.449-29.44l-45.055 63.616q7.68 5.376 19.968 5.376M121.202 281.503c10.18 10.18 26.685 10.18 36.865 0s10.18-26.685 0-36.865l-33.179-33.179a5.213 5.213 0 0 0-7.373 0l-33.179 33.179.004.003c-9.814 10.207-9.692 26.436.365 36.493s26.287 10.179 36.493.365z"/><rect width="5" height="33" x="118.5" y="266" rx="2.5"/><path d="M757.423 959q1.536 0 2.304.512.64.64.64 2.048v.896q0 2.816-2.944 2.816h-15.616v72.318l14.848-8.96c.768-.51 1.451-.77 2.048-.77q1.024 0 1.792 1.41l.512.77c.342.6.512 1.15.512 1.66q0 1.41-1.536 2.31l-18.944 11.39c-.682.43-1.493.64-2.432.64h-.768q-2.943 0-2.943-2.94v-77.828h-15.617q-2.943 0-2.944-2.816v-.896q0-1.408.768-2.048.64-.512 2.176-.512zm-92.843-1.92q19.713 0 29.952 11.776 10.24 11.904 10.24 33.664 0 21.765-10.24 33.54c-6.826 7.93-16.81 11.9-29.952 11.9-13.141 0-23.125-3.97-29.952-11.9q-10.24-11.775-10.24-33.54 0-21.76 10.24-33.664 10.24-11.776 29.952-11.776m-20.48 79.23q7.937 5.76 20.48 5.76 16.512 0 25.088-10.11c5.632-6.66 8.448-16.47 8.448-29.44q0-19.968-8.832-29.952zm20.48-73.342q-16.512 0-24.96 9.984-8.576 10.111-8.576 29.568c0 12.8 2.816 22.61 8.449 29.44l45.055-63.616q-7.68-5.376-19.968-5.376M692.798 836.497c-10.18-10.18-26.685-10.18-36.865 0s-10.18 26.685 0 36.865l33.179 33.179a5.213 5.213 0 0 0 7.373 0l33.179-33.179-.004-.003c9.814-10.207 9.692-26.436-.365-36.493s-26.287-10.179-36.493-.365z"/><rect width="5" height="33" x="695.5" y="852" rx="2.5" transform="rotate(-180 695.5 852)"/></g><path stroke="#fff066" stroke-width="8" d="M445.739 496.674c-8.618 8.618-22.59 8.619-31.209.001l-2.777-2.777-2.827 2.718c-8.639 8.306-22.379 8.203-30.892-.31-8.514-8.514-8.617-22.254-.31-30.893l.137-.143 32.983-32.982a1.213 1.213 0 0 1 1.716-.001l33.179 33.179c8.618 8.618 8.618 22.59 0 31.208Z"/><rect width="5" height="33" x="409" y="484" fill="#fff066" rx="2.5"/><path stroke="#fff066" stroke-width="8" d="M277.739 658.674c-8.618 8.618-22.59 8.619-31.209.001l-2.777-2.777-2.827 2.718c-8.639 8.306-22.379 8.203-30.892-.31-8.514-8.514-8.617-22.254-.31-30.893l.137-.143 32.983-32.982a1.213 1.213 0 0 1 1.716-.001l33.179 33.179c8.618 8.618 8.618 22.59 0 31.208Z"/><rect width="5" height="33" x="241" y="646" fill="#fff066" rx="2.5"/><path stroke="#fff066" stroke-width="8" d="M441.739 658.674c-8.618 8.618-22.59 8.619-31.209.001l-2.777-2.777-2.827 2.718c-8.639 8.306-22.379 8.203-30.892-.31-8.514-8.514-8.617-22.254-.31-30.893l.137-.143 32.983-32.982a1.213 1.213 0 0 1 1.716-.001l33.179 33.179c8.618 8.618 8.618 22.59 0 31.208Z"/><rect width="5" height="33" x="405" y="646" fill="#fff066" rx="2.5"/><path stroke="#fff066" stroke-width="8" d="M445.739 820.674c-8.618 8.618-22.59 8.619-31.209.001l-2.777-2.777-2.827 2.718c-8.639 8.306-22.379 8.203-30.892-.31-8.514-8.514-8.617-22.254-.31-30.893l.137-.143 32.983-32.982a1.213 1.213 0 0 1 1.716-.001l33.179 33.179c8.618 8.618 8.618 22.59 0 31.208Z"/><rect width="5" height="33" x="409" y="808" fill="#fff066" rx="2.5"/><path stroke="#fff066" stroke-width="8" d="M613.739 658.674c-8.618 8.618-22.59 8.619-31.209.001l-2.777-2.777-2.827 2.718c-8.639 8.306-22.379 8.203-30.892-.31-8.514-8.514-8.617-22.254-.31-30.893l.137-.143 32.983-32.982a1.213 1.213 0 0 1 1.716-.001l33.179 33.179c8.618 8.618 8.618 22.59 0 31.208Z"/><rect width="5" height="33" x="577" y="646" fill="#fff066" rx="2.5"/><path stroke="#fff066" stroke-width="8" d="M613.739 496.674c-8.618 8.618-22.59 8.619-31.209.001l-2.777-2.777-2.827 2.718c-8.639 8.306-22.379 8.203-30.892-.31-8.514-8.514-8.617-22.254-.31-30.893l.137-.143 32.983-32.982a1.213 1.213 0 0 1 1.716-.001l33.179 33.179c8.618 8.618 8.618 22.59 0 31.208Z"/><rect width="5" height="33" x="577" y="484" fill="#fff066" rx="2.5"/><path stroke="#fff066" stroke-width="8" d="M277.739 496.674c-8.618 8.618-22.59 8.619-31.209.001l-2.777-2.777-2.827 2.718c-8.639 8.306-22.379 8.203-30.892-.31-8.514-8.514-8.617-22.254-.31-30.893l.137-.143 32.983-32.982a1.213 1.213 0 0 1 1.716-.001l33.179 33.179c8.618 8.618 8.618 22.59 0 31.208Z"/><rect width="5" height="33" x="241" y="484" fill="#fff066" rx="2.5"/><path stroke="#fff066" stroke-width="8" d="M613.739 334.674c-8.618 8.618-22.59 8.619-31.209.001l-2.777-2.777-2.827 2.718c-8.639 8.306-22.379 8.203-30.892-.31-8.514-8.514-8.617-22.254-.31-30.893l.137-.143 32.983-32.982a1.213 1.213 0 0 1 1.716-.001l33.179 33.179c8.618 8.618 8.618 22.59 0 31.208Z"/><rect width="5" height="33" x="577" y="322" fill="#fff066" rx="2.5"/><path stroke="#fff066" stroke-width="8" d="M277.739 334.674c-8.618 8.618-22.59 8.619-31.209.001l-2.777-2.777-2.827 2.718c-8.639 8.306-22.379 8.203-30.892-.31-8.514-8.514-8.617-22.254-.31-30.893l.137-.143 32.983-32.982a1.213 1.213 0 0 1 1.716-.001l33.179 33.179c8.618 8.618 8.618 22.59 0 31.208Z"/><rect width="5" height="33" x="241" y="322" fill="#fff066" rx="2.5"/><path stroke="#fff066" stroke-width="8" d="M445.739 334.674c-8.618 8.618-22.59 8.619-31.209.001l-2.777-2.777-2.827 2.718c-8.639 8.306-22.379 8.203-30.892-.31-8.514-8.514-8.617-22.254-.31-30.893l.137-.143 32.983-32.982a1.213 1.213 0 0 1 1.716-.001l33.179 33.179c8.618 8.618 8.618 22.59 0 31.208Z"/><rect width="5" height="33" x="409" y="322" fill="#fff066" rx="2.5"/><defs><clipPath id="a"><path fill="#fff" d="M46 48h722v1022H46z"/></clipPath></defs></svg>

<svg width="822" height="1122" viewBox="0 0 822 1122" fill="none" xmlns="http://www.w3.org/2000/svg">
<rect width="822" height="1122" rx="20" fill="#1A0033"/>
<g clip-path="url(#clip0_31_2090)">
<path d="M56.5765 159C55.5525 159 54.7845 158.829 54.2725 158.488C53.8458 158.061 53.6325 157.379 53.6325 156.44V155.544C53.6325 153.667 54.6138 152.728 56.5765 152.728H72.1925V80.408L57.3445 89.368C56.5765 89.88 55.8938 90.136 55.2965 90.136C54.6138 90.136 54.0165 89.6667 53.5045 88.728L52.9925 87.96C52.6512 87.3627 52.4805 86.808 52.4805 86.296C52.4805 85.3573 52.9925 84.5893 54.0165 83.992L72.9605 72.6C73.6432 72.1733 74.4538 71.96 75.3925 71.96H76.1605C78.1232 71.96 79.1045 72.9413 79.1045 74.904V152.728H94.7205C96.6832 152.728 97.6645 153.667 97.6645 155.544V156.44C97.6645 157.379 97.4085 158.061 96.8965 158.488C96.4698 158.829 95.7445 159 94.7205 159H56.5765ZM149.42 160.92C136.278 160.92 126.294 156.995 119.468 149.144C112.641 141.208 109.228 129.987 109.228 115.48C109.228 100.973 112.641 89.7947 119.468 81.944C126.294 74.008 136.278 70.04 149.42 70.04C162.561 70.04 172.545 74.008 179.372 81.944C186.198 89.7947 189.612 100.973 189.612 115.48C189.612 129.987 186.198 141.208 179.372 149.144C172.545 156.995 162.561 160.92 149.42 160.92ZM169.9 81.688C164.609 77.848 157.782 75.928 149.42 75.928C138.412 75.928 130.049 79.2987 124.332 86.04C118.7 92.696 115.884 102.509 115.884 115.48C115.884 128.792 118.828 138.776 124.716 145.432L169.9 81.688ZM149.42 155.032C160.428 155.032 168.748 151.704 174.38 145.048C180.097 138.307 182.956 128.451 182.956 115.48C182.956 102.68 180.14 92.8667 174.507 86.04L129.452 149.656C134.572 153.24 141.228 155.032 149.42 155.032Z" fill="#FFF066"/>
<path d="M121.202 281.503C131.382 291.683 147.887 291.683 158.067 281.503C168.247 271.323 168.247 254.818 158.067 244.638L124.888 211.459C122.852 209.423 119.551 209.423 117.515 211.459L84.3364 244.638L84.34 244.641C74.5265 254.848 74.6481 271.077 84.7051 281.134C94.762 291.191 110.992 291.313 121.198 281.499L121.202 281.503Z" fill="#FFF066"/>
<rect x="118.5" y="266" width="5" height="33" rx="2.5" fill="#FFF066"/>
<path d="M757.423 959C758.447 959 759.215 959.171 759.727 959.512C760.154 959.939 760.367 960.621 760.367 961.56V962.456C760.367 964.333 759.386 965.272 757.423 965.272H741.807V1037.59L756.655 1028.63C757.423 1028.12 758.106 1027.86 758.703 1027.86C759.386 1027.86 759.983 1028.33 760.495 1029.27L761.007 1030.04C761.349 1030.64 761.519 1031.19 761.519 1031.7C761.519 1032.64 761.007 1033.41 759.983 1034.01L741.039 1045.4C740.357 1045.83 739.546 1046.04 738.607 1046.04H737.839C735.877 1046.04 734.896 1045.06 734.896 1043.1V965.272H719.279C717.317 965.272 716.335 964.333 716.335 962.456V961.56C716.335 960.621 716.591 959.939 717.103 959.512C717.53 959.171 718.255 959 719.279 959H757.423ZM664.58 957.08C677.722 957.08 687.706 961.005 694.532 968.856C701.359 976.792 704.772 988.013 704.772 1002.52C704.772 1017.03 701.359 1028.21 694.532 1036.06C687.706 1043.99 677.722 1047.96 664.58 1047.96C651.439 1047.96 641.455 1043.99 634.628 1036.06C627.802 1028.21 624.388 1017.03 624.388 1002.52C624.388 988.013 627.802 976.792 634.628 968.856C641.455 961.005 651.439 957.08 664.58 957.08ZM644.1 1036.31C649.391 1040.15 656.218 1042.07 664.58 1042.07C675.588 1042.07 683.951 1038.7 689.668 1031.96C695.3 1025.3 698.116 1015.49 698.116 1002.52C698.116 989.208 695.172 979.224 689.284 972.568L644.1 1036.31ZM664.58 962.968C653.572 962.968 645.252 966.296 639.62 972.952C633.903 979.693 631.044 989.549 631.044 1002.52C631.044 1015.32 633.86 1025.13 639.493 1031.96L684.548 968.344C679.428 964.76 672.772 962.968 664.58 962.968Z" fill="#FFF066"/>
<path d="M692.798 836.497C682.618 826.317 666.113 826.317 655.933 836.497C645.753 846.677 645.753 863.182 655.933 873.362L689.112 906.541C691.148 908.577 694.449 908.577 696.485 906.541L729.664 873.362L729.66 873.359C739.474 863.152 739.352 846.923 729.295 836.866C719.238 826.809 703.008 826.687 692.802 836.501L692.798 836.497Z" fill="#FFF066"/>
<rect x="695.5" y="852" width="5" height="33" rx="2.5" transform="rotate(-180 695.5 852)" fill="#FFF066"/>
</g>
<path d="M445.739 496.674C437.121 505.292 423.149 505.293 414.53 496.675L411.753 493.898L408.926 496.616C400.287 504.922 386.547 504.819 378.034 496.306C369.52 487.792 369.417 474.052 377.724 465.413L377.861 465.27L410.844 432.288C411.318 431.814 412.086 431.813 412.56 432.287L445.739 465.466C454.357 474.084 454.357 488.056 445.739 496.674Z" stroke="#FFF066" stroke-width="8"/>
<rect x="409" y="484" width="5" height="33" rx="2.5" fill="#FFF066"/>
<path d="M277.739 658.674C269.121 667.292 255.149 667.293 246.53 658.675L243.753 655.898L240.926 658.616C232.287 666.922 218.547 666.819 210.034 658.306C201.52 649.792 201.417 636.052 209.724 627.413L209.861 627.27L242.844 594.288C243.318 593.814 244.086 593.813 244.56 594.287L277.739 627.466C286.357 636.084 286.357 650.056 277.739 658.674Z" stroke="#FFF066" stroke-width="8"/>
<rect x="241" y="646" width="5" height="33" rx="2.5" fill="#FFF066"/>
<path d="M441.739 658.674C433.121 667.292 419.149 667.293 410.53 658.675L407.753 655.898L404.926 658.616C396.287 666.922 382.547 666.819 374.034 658.306C365.52 649.792 365.417 636.052 373.724 627.413L373.861 627.27L406.844 594.288C407.318 593.814 408.086 593.813 408.56 594.287L441.739 627.466C450.357 636.084 450.357 650.056 441.739 658.674Z" stroke="#FFF066" stroke-width="8"/>
<rect x="405" y="646" width="5" height="33" rx="2.5" fill="#FFF066"/>
<path d="M445.739 820.674C437.121 829.292 423.149 829.293 414.53 820.675L411.753 817.898L408.926 820.616C400.287 828.922 386.547 828.819 378.034 820.306C369.52 811.792 369.417 798.052 377.724 789.413L377.861 789.27L410.844 756.288C411.318 755.814 412.086 755.813 412.56 756.287L445.739 789.466C454.357 798.084 454.357 812.056 445.739 820.674Z" stroke="#FFF066" stroke-width="8"/>
<rect x="409" y="808" width="5" height="33" rx="2.5" fill="#FFF066"/>
<path d="M613.739 658.674C605.121 667.292 591.149 667.293 582.53 658.675L579.753 655.898L576.926 658.616C568.287 666.922 554.547 666.819 546.034 658.306C537.52 649.792 537.417 636.052 545.724 627.413L545.861 627.27L578.844 594.288C579.318 593.814 580.086 593.813 580.56 594.287L613.739 627.466C622.357 636.084 622.357 650.056 613.739 658.674Z" stroke="#FFF066" stroke-width="8"/>
<rect x="577" y="646" width="5" height="33" rx="2.5" fill="#FFF066"/>
<path d="M613.739 496.674C605.121 505.292 591.149 505.293 582.53 496.675L579.753 493.898L576.926 496.616C568.287 504.922 554.547 504.819 546.034 496.306C537.52 487.792 537.417 474.052 545.724 465.413L545.861 465.27L578.844 432.288C579.318 431.814 580.086 431.813 580.56 432.287L613.739 465.466C622.357 474.084 622.357 488.056 613.739 496.674Z" stroke="#FFF066" stroke-width="8"/>
<rect x="577" y="484" width="5" height="33" rx="2.5" fill="#FFF066"/>
<path d="M277.739 496.674C269.121 505.292 255.149 505.293 246.53 496.675L243.753 493.898L240.926 496.616C232.287 504.922 218.547 504.819 210.034 496.306C201.52 487.792 201.417 474.052 209.724 465.413L209.861 465.27L242.844 432.288C243.318 431.814 244.086 431.813 244.56 432.287L277.739 465.466C286.357 474.084 286.357 488.056 277.739 496.674Z" stroke="#FFF066" stroke-width="8"/>
<rect x="241" y="484" width="5" height="33" rx="2.5" fill="#FFF066"/>
<path d="M613.739 334.674C605.121 343.292 591.149 343.293 582.53 334.675L579.753 331.898L576.926 334.616C568.287 342.922 554.547 342.819 546.034 334.306C537.52 325.792 537.417 312.052 545.724 303.413L545.861 303.27L578.844 270.288C579.318 269.814 580.086 269.813 580.56 270.287L613.739 303.466C622.357 312.084 622.357 326.056 613.739 334.674Z" stroke="#FFF066" stroke-width="8"/>
<rect x="577" y="322" width="5" height="33" rx="2.5" fill="#FFF066"/>
<path d="M277.739 334.674C269.121 343.292 255.149 343.293 246.53 334.675L243.753 331.898L240.926 334.616C232.287 342.922 218.547 342.819 210.034 334.306C201.52 325.792 201.417 312.052 209.724 303.413L209.861 303.27L242.844 270.288C243.318 269.814 244.086 269.813 244.56 270.287L277.739 303.466C286.357 312.084 286.357 326.056 277.739 334.674Z" stroke="#FFF066" stroke-width="8"/>
<rect x="241" y="322" width="5" height="33" rx="2.5" fill="#FFF066"/>
<path d="M445.739 334.674C437.121 343.292 423.149 343.293 414.53 334.675L411.753 331.898L408.926 334.616C400.287 342.922 386.547 342.819 378.034 334.306C369.52 325.792 369.417 312.052 377.724 303.413L377.861 303.27L410.844 270.288C411.318 269.814 412.086 269.813 412.56 270.287L445.739 303.466C454.357 312.084 454.357 326.056 445.739 334.674Z" stroke="#FFF066" stroke-width="8"/>
<rect x="409" y="322" width="5" height="33" rx="2.5" fill="#FFF066"/>
<defs>
<clipPath id="clip0_31_2090">
<rect width="722" height="1022" fill="white" transform="translate(46 48)"/>
</clipPath>
</defs>
</svg>
